src/assets/images/footer/Visa_2021.svg

<svg width="63" height="26" viewBox="0 0 63 26" fill="none" xmlns="http://www.w3.org/2000/svg">
<path d="M39.0805 6C34.8204 6 31.0132 8.27193 31.0132 12.4685C31.0132 17.2818 37.7652 17.6142 37.7652 20.0326C37.7652 21.0508 36.6312 21.9622 34.6937 21.9622C31.9447 21.9622 29.8901 20.6887 29.8901 20.6887L29.0108 24.9243C29.0108 24.9243 31.3778 26 34.5201 26C39.1778 26 42.8432 23.6169 42.8432 19.348C42.8432 14.2616 36.0631 13.9391 36.0631 11.695C36.0631 10.8973 36.994 10.0236 38.9255 10.0236C41.1051 10.0236 42.8829 10.9498 42.8829 10.9498L43.7435 6.85946C43.7435 6.85946 41.8084 6 39.0799 6H39.0805ZM0.103303 6.30894L0 6.92619C0 6.92619 1.79219 7.26355 3.40661 7.93704C5.48529 8.70876 5.63303 9.15858 5.98318 10.5537L9.7976 25.6812H14.9111L22.7886 6.30894H17.6871L12.6252 19.4802L10.5598 8.31518C10.3706 7.03741 9.41081 6.30832 8.23664 6.30832H0.103904L0.103303 6.30894ZM24.8402 6.30894L20.8384 25.6812H25.7033L29.6907 6.30894H24.8402ZM51.973 6.30894C50.8 6.30894 50.1784 6.95523 49.7225 8.08409L42.5952 25.6812H47.6967L48.6835 22.7481H54.8985L55.4985 25.6812H60L56.0733 6.30894H51.973ZM52.6366 11.543L54.149 18.8123H50.0979L52.6372 11.543H52.6366Z" fill="#1434CB"/>
</svg>

<svg width="63" height="26" fill="none" xmlns="http://www.w3.org/2000/svg"><path d="M39.08 6c-4.26 0-8.067 2.272-8.067 6.469 0 4.813 6.752 5.145 6.752 7.564 0 1.018-1.134 1.93-3.071 1.93-2.75 0-4.804-1.274-4.804-1.274l-.88 4.235S31.379 26 34.52 26c4.658 0 8.323-2.383 8.323-6.652 0-5.086-6.78-5.409-6.78-7.653 0-.798.931-1.671 2.862-1.671 2.18 0 3.958.926 3.958.926l.86-4.09S41.808 6 39.08 6ZM.104 6.309 0 6.926s1.792.338 3.407 1.011c2.078.772 2.226 1.222 2.576 2.617L9.798 25.68h5.113L22.79 6.31h-5.102L12.625 19.48 10.56 8.315c-.19-1.278-1.15-2.007-2.323-2.007H.104Zm24.737 0L20.838 25.68h4.865L29.691 6.31h-4.85Zm27.133 0c-1.173 0-1.795.646-2.25 1.775l-7.128 17.597h5.102l.986-2.933h6.215l.6 2.933H60L56.073 6.31h-4.1Zm.664 5.234 1.512 7.27h-4.051l2.54-7.27h-.001Z" fill="#1434CB"/></svg>
